**harm	**harte	**silbe	**silbe	**silbe	**rhyme	**timestamp	**phrase	**leadinstrument	**kern
*M4/4	*M4/4	*	*	*	*	*	*	*	*
*	*	*	*	*	*	*	*	*	*
*	*	*	*	*	*	*	*	*	*
*b-:	*b-:	*	*	*	*	*	*	*	*b-:
*	*	*	*	*	*	*	*	*	*
*	*	*	*	*	*	*	*	*	*
1r;	N	.	.	.	.	0	.	r	1r;
=1	=1	=1	=1	=1	=1	=1	=1	=1	=1
*>Letter>A	*>Letter>A	*>Letter>A	*>Letter>A	*>Letter>A	*>Letter>A	*>Letter>A	*>Letter>A	*>Letter>A	*>Letter>A
*>Label>Intro	*>Label>Intro	*>Label>Intro	*>Label>Intro	*>Label>Intro	*>Label>Intro	*>Label>Intro	*>Label>Intro	*>Label>Intro	*>Label>Intro
1r	N	.	.	.	.	0.209	newline	synthesizer	1r
=2	=2	=2	=2	=2	=2	=2	=2	=2	=2
2-VII	A-:1	.	Ooh!	.	.	2.188	.	synthesizer	2A- 2cc 2ee-
.	.	.	_	.	.	.	.	.	.
.	.	.	.	.	.	.	.	.	.
.	.	Yeah!	.	.	.	.	.	.	.
2i	B-:1	_	.	.	.	3.177	.	.	2B- 2dd- 2ff
.	.	.	.	.	.	.	.	.	.
.	.	.	.	.	.	.	.	.	.
=3	=3	=3	=3	=3	=3	=3	=3	=3	=3
2-VI	G-:1	.	.	.	.	4.167	.	synthesizer	2G-- 2b-- 2dd--
.	.	.	.	.	.	.	.	.	.
.	.	Can	.	.	.	.	.	.	.
.	.	you	.	.	.	.	.	.	.
2-VII	A-:1	feel	.	.	.	5.156	.	.	2A- 2cc 2ee-
.	.	it,	.	.	.	.	.	.	.
.	.	ba-	.	.	.	.	.	.	.
.	.	-by?	.	.	.	.	.	.	.
.	.	.	.	.	.	.	.	.	.
=4	=4	=4	=4	=4	=4	=4	=4	=4	=4
2-VII	A-:1	.	Ooh!	.	.	6.145	.	synthesizer	2A- 2cc 2ee-
.	.	.	_	.	.	.	.	.	.
.	.	.	.	.	.	.	.	.	.
2i	B-:1	.	.	.	.	7.135	.	.	2B- 2dd- 2ff
=5	=5	=5	=5	=5	=5	=5	=5	=5	=5
2-VI	G-:1	.	.	.	.	8.124	.	synthesizer	2G-- 2b-- 2dd--
.	.	.	.	.	.	.	.	.	.
.	.	I	.	.	.	.	.	.	.
2-VII	A-:1	can,	.	.	.	9.114	.	.	2A- 2cc 2ee-
.	.	too.	.	.	.	.	.	.	.
.	.	.	.	.	.	.	.	.	.
=6	=6	=6	=6	=6	=6	=6	=6	=6	=6
2-VII	A-:1	.	Ooh!	.	.	10.103	newline	synthesizer	2A- 2cc 2ee-
.	.	.	.	Bom,	.	.	.	.	.
.	.	.	_	.	.	.	.	.	.
.	.	.	.	_	.	.	.	.	.
.	.	.	.	bom,	.	.	.	.	.
2i	B-:1	.	.	bom,	.	11.088	.	.	2B- 2dd- 2ff
.	.	.	.	bom,	.	.	.	.	.
.	.	.	.	_	.	.	.	.	.
.	.	.	.	bom,	.	.	.	.	.
=7	=7	=7	=7	=7	=7	=7	=7	=7	=7
2-VI	G-:1	.	.	.	.	12.073	.	synthesizer	2G-- 2b-- 2dd--
.	.	.	.	bom,	.	.	.	.	.
.	.	.	.	_	.	.	.	.	.
.	.	.	.	bom,	.	.	.	.	.
2-VII	A-:1	.	.	bom,	.	13.058	.	.	2A- 2cc 2ee-
.	.	.	.	bom,	.	.	.	.	.
.	.	.	.	_	.	.	.	.	.
.	.	.	.	bom.	.	.	.	.	.
=8	=8	=8	=8	=8	=8	=8	=8	=8	=8
2-VII	A-:1	.	Ooh!	.	.	14.044	.	synthesizer	2A- 2cc 2ee-
.	.	.	.	Bom,	.	.	.	.	.
.	.	.	_	.	.	.	.	.	.
.	.	.	.	_	.	.	.	.	.
.	.	.	.	bom,	.	.	.	.	.
2i	B-:1	.	.	bom,	.	15.029	.	.	2B- 2dd- 2ff
.	.	.	.	bom,	.	.	.	.	.
.	.	.	.	_	.	.	.	.	.
.	.	.	.	bom,	.	.	.	.	.
=9	=9	=9	=9	=9	=9	=9	=9	=9	=9
2-VI	G-:1	.	.	.	.	16.014	.	synthesizer	2G-- 2b-- 2dd--
.	.	.	.	bom,	.	.	.	.	.
.	.	.	.	_	.	.	.	.	.
.	.	.	.	bom,	.	.	.	.	.
2-VII	A-:1	.	.	bom,	.	16.999	.	.	2A- 2cc 2ee-
.	.	.	.	bom,	.	.	.	.	.
.	.	.	.	_	.	.	.	.	.
.	.	.	.	bom.	.	.	.	.	.
=10	=10	=10	=10	=10	=10	=10	=10	=10	=10
*>Letter>B	*>Letter>B	*>Letter>B	*>Letter>B	*>Letter>B	*>Letter>B	*>Letter>B	*>Letter>B	*>Letter>B	*>Letter>B
*>Label>Instrumental	*>Label>Instrumental	*>Label>Instrumental	*>Label>Instrumental	*>Label>Instrumental	*>Label>Instrumental	*>Label>Instrumental	*>Label>Instrumental	*>Label>Instrumental	*>Label>Instrumental
2-VII	A-:maj	.	Ooh!	.	.	17.984	newline	synthesizer	2A- 2cc 2ee-
.	.	.	.	Bom,	.	.	.	.	.
.	.	.	_	.	.	.	.	.	.
.	.	.	.	_	.	.	.	.	.
.	.	.	.	bom,	.	.	.	.	.
2i7	B-:min7	Come	.	bom,	.	18.974	.	.	2B- 2dd- 2ff 2aa
.	.	on,	.	.	.	.	.	.	.
.	.	.	.	bom,	.	.	.	.	.
.	.	swing	.	_	.	.	.	.	.
.	.	it.	.	bom,	.	.	.	.	.
.	.	.	.	.	.	.	.	.	.
=11	=11	=11	=11	=11	=11	=11	=11	=11	=11
2-VI	G-:maj	.	.	.	.	19.964	.	synthesizer	2G-- 2b-- 2dd--
.	.	.	.	bom,	.	.	.	.	.
.	.	.	.	_	.	.	.	.	.
.	.	.	.	bom,	.	.	.	.	.
.	.	C-	.	.	.	.	.	.	.
2-VII	A-:maj	-come	.	bom,	.	20.954	.	.	2A- 2cc 2ee-
.	.	on,	.	.	.	.	.	.	.
.	.	.	.	bom,	.	.	.	.	.
.	.	swing	.	_	.	.	.	.	.
.	.	.	.	bom.	.	.	.	.	.
.	.	it.	Ooh,	.	.	.	.	.	.
.	.	.	.	.	.	.	.	.	.
=12	=12	=12	=12	=12	=12	=12	=12	=12	=12
2-VII	A-:maj	.	Ooh!	.	.	21.944	.	synthesizer	2A- 2cc 2ee-
.	.	.	.	Bom,	.	.	.	.	.
.	.	.	_	.	.	.	.	.	.
.	.	.	.	_	.	.	.	.	.
.	.	.	.	bom,	.	.	.	.	.
2i7	B-:min7	Come	.	bom,	.	22.933	.	.	2B- 2dd- 2ff 2aa
.	.	on,	.	.	.	.	.	.	.
.	.	.	.	bom,	.	.	.	.	.
.	.	swing	.	_	.	.	.	.	.
.	.	it.	.	bom,	.	.	.	.	.
.	.	.	.	.	.	.	.	.	.
=13	=13	=13	=13	=13	=13	=13	=13	=13	=13
2-VI	G-:maj	.	.	.	.	23.923	.	synthesizer	2G-- 2b-- 2dd--
.	.	.	.	bom,	.	.	.	.	.
.	.	.	.	_	.	.	.	.	.
.	.	.	.	bom,	.	.	.	.	.
.	.	C-	.	.	.	.	.	.	.
2-VII	A-:maj	-come	.	bom,	.	24.913	.	.	2A- 2cc 2ee-
.	.	on,	.	.	.	.	.	.	.
.	.	.	.	bom,	.	.	.	.	.
.	.	swing	.	_	.	.	.	.	.
.	.	it.	.	bom.	.	.	.	.	.
.	.	.	.	.	.	.	.	.	.
=14	=14	=14	=14	=14	=14	=14	=14	=14	=14
2-VII	A-:maj	One,	Ooh!	.	.	25.903	newline	synthesizer	2A- 2cc 2ee-
.	.	.	.	Bom,	.	.	.	.	.
.	.	.	_	.	.	.	.	.	.
.	.	.	.	_	.	.	.	.	.
.	.	.	.	bom,	.	.	.	.	.
2i7	B-:min7	.	.	bom,	.	26.885	.	.	2B- 2dd- 2ff 2aa
.	.	.	.	bom,	.	.	.	.	.
.	.	.	.	_	.	.	.	.	.
.	.	.	.	bom,	.	.	.	.	.
=15	=15	=15	=15	=15	=15	=15	=15	=15	=15
2-VI	G-:maj	two,	.	.	.	27.868	.	synthesizer	2G-- 2b-- 2dd--
.	.	.	.	bom,	.	.	.	.	.
.	.	.	.	_	.	.	.	.	.
.	.	.	.	bom,	.	.	.	.	.
2-VII	A-:maj	.	.	bom,	.	28.85	.	.	2A- 2cc 2ee-
.	.	.	.	bom,	.	.	.	.	.
.	.	.	.	_	.	.	.	.	.
.	.	.	.	bom.	.	.	.	.	.
.	.	.	Ooh,	.	.	.	.	.	.
=16	=16	=16	=16	=16	=16	=16	=16	=16	=16
2-VII	A-:maj	three,	Ooh!	.	.	29.832	.	synthesizer	2A- 2cc 2ee-
.	.	.	.	Bom,	.	.	.	.	.
.	.	.	_	.	.	.	.	.	.
.	.	.	.	_	.	.	.	.	.
.	.	.	.	bom,	.	.	.	.	.
2i7	B-:min7	.	.	bom,	.	30.815	.	.	2B- 2dd- 2ff 2aa
.	.	.	.	bom,	.	.	.	.	.
.	.	.	.	_	.	.	.	.	.
.	.	.	.	bom,	.	.	.	.	.
=17	=17	=17	=17	=17	=17	=17	=17	=17	=17
2-VI	G-:maj	now	.	.	.	31.797	.	synthesizer	2G-- 2b-- 2dd--
.	.	we	.	bom,	.	.	.	.	.
.	.	come	.	.	.	.	.	.	.
.	.	_	.	_	.	.	.	.	.
.	.	.	.	bom,	.	.	.	.	.
.	.	to	.	.	.	.	.	.	.
.	.	the	.	.	.	.	.	.	.
2-VII	A-:maj	pay-	.	bom,	.	32.779	.	.	2A- 2cc 2ee-
.	.	-off.	.	.	.	.	.	.	.
.	.	.	It's	.	.	.	.	.	.
.	.	.	.	bom,	.	.	.	.	.
.	.	.	such	_	.	.	.	.	.
.	.	.	.	bom.	.	.	.	.	.
.	.	.	a	.	.	.	.	.	.
=18	=18	=18	=18	=18	=18	=18	=18	=18	=18
*>Letter>B	*>Letter>B	*>Letter>B	*>Letter>B	*>Letter>B	*>Letter>B	*>Letter>B	*>Letter>B	*>Letter>B	*>Letter>B
*>Label>Chorus	*>Label>Chorus	*>Label>Chorus	*>Label>Chorus	*>Label>Chorus	*>Label>Chorus	*>Label>Chorus	*>Label>Chorus	*>Label>Chorus	*>Label>Chorus
2-VII	A-:maj	.	.	.	.	33.762	newline	voice	2A- 2cc 2ee-
.	.	.	good	Bom,	.	.	.	.	.
.	.	.	.	_	.	.	.	.	.
.	.	.	.	bom,	.	.	.	.	.
.	.	.	vi-	.	.	.	.	.	.
2i7	B-:min7	.	-bra-	bom,	(A	34.746	.	.	2B- 2dd- 2ff 2aa
.	.	.	-tion!	.	a)	.	.	.	.
.	.	.	.	bom,	.	.	.	.	.
.	.	.	_	_	.	.	.	.	.
.	.	.	.	bom,	.	.	.	.	.
.	.	.	.	.	.	.	.	.	.
=19	=19	=19	=19	=19	=19	=19	=19	=19	=19
2-VI	G-:maj	.	.	.	.	35.731	.	voice	2G-- 2b-- 2dd--
.	.	.	.	bom,	.	.	.	.	.
.	.	.	.	_	.	.	.	.	.
.	.	.	.	bom,	.	.	.	.	.
2-VII	A-:maj	.	.	bom,	.	36.716	.	.	2A- 2cc 2ee-
.	.	.	It's	.	.	.	.	.	.
.	.	.	.	bom,	.	.	.	.	.
.	.	.	such	_	.	.	.	.	.
.	.	.	.	bom.	.	.	.	.	.
.	.	.	a	.	.	.	.	.	.
=20	=20	=20	=20	=20	=20	=20	=20	=20	=20
2-VII	A-:maj	.	.	.	.	37.7	.	voice	2A- 2cc 2ee-
.	.	.	sweet	Bom,	.	.	.	.	.
.	.	.	_	_	.	.	.	.	.
.	.	.	.	bom,	.	.	.	.	.
.	.	.	_	.	.	.	.	.	.
2i7	B-:min7	.	_	bom,	.	38.685	.	.	2B- 2dd- 2ff 2aa
.	.	.	sen-	.	.	.	.	.	.
.	.	.	.	bom,	.	.	.	.	.
.	.	.	.	_	.	.	.	.	.
.	.	.	.	bom,	.	.	.	.	.
.	.	.	-sa-	.	(A	.	.	.	.
=21	=21	=21	=21	=21	=21	=21	=21	=21	=21
2-VI	G-:maj	.	-tion!	.	a)	39.67	.	voice	2G-- 2b-- 2dd--
.	.	.	_	.	.	.	.	.	.
.	.	.	_	bom,	.	.	.	.	.
.	.	.	_	.	.	.	.	.	.
.	.	.	_	_	.	.	.	.	.
.	.	.	.	bom,	.	.	.	.	.
.	.	.	_	.	.	.	.	.	.
2-VII	A-:maj	.	.	bom,	.	40.654	.	.	2A- 2cc 2ee-
.	.	.	It's	.	.	.	.	.	.
.	.	.	.	bom,	.	.	.	.	.
.	.	.	such	_	.	.	.	.	.
.	.	.	.	bom.	.	.	.	.	.
.	.	.	a	.	.	.	.	.	.
=22	=22	=22	=22	=22	=22	=22	=22	=22	=22
2-VII	A-:maj	.	.	.	.	41.639	newline	voice	2A- 2cc 2ee-
.	.	.	good	Bom,	.	.	.	.	.
.	.	.	.	_	.	.	.	.	.
.	.	.	.	bom,	.	.	.	.	.
.	.	.	vi-	.	.	.	.	.	.
2i7	B-:min7	.	-bra-	bom,	(A	42.628	.	.	2B- 2dd- 2ff 2aa
.	.	.	-tion!	.	a)	.	.	.	.
.	.	.	.	bom,	.	.	.	.	.
.	.	.	_	_	.	.	.	.	.
.	.	.	.	bom,	.	.	.	.	.
.	.	.	.	.	.	.	.	.	.
=23	=23	=23	=23	=23	=23	=23	=23	=23	=23
2-VI	G-:maj	.	.	.	.	43.617	.	voice	2G-- 2b-- 2dd--
.	.	.	.	bom,	.	.	.	.	.
.	.	.	.	_	.	.	.	.	.
.	.	.	.	bom,	.	.	.	.	.
2-VII	A-:maj	.	.	bom,	.	44.606	.	.	2A- 2cc 2ee-
.	.	.	It's	.	.	.	.	.	.
.	.	.	.	bom,	.	.	.	.	.
.	.	.	such	_	.	.	.	.	.
.	.	.	.	bom.	.	.	.	.	.
.	.	.	a	.	.	.	.	.	.
=24	=24	=24	=24	=24	=24	=24	=24	=24	=24
2-VII	A-:maj	.	.	.	.	45.595	.	voice	2A- 2cc 2ee-
.	.	.	sweet	Bom,	.	.	.	.	.
.	.	.	_	_	.	.	.	.	.
.	.	.	.	bom,	.	.	.	.	.
.	.	.	_	.	.	.	.	.	.
2i7	B-:min7	.	_	bom,	.	46.584	.	.	2B- 2dd- 2ff 2aa
.	.	.	sen-	.	.	.	.	.	.
.	.	.	.	bom,	.	.	.	.	.
.	.	.	.	_	.	.	.	.	.
.	.	.	.	bom,	.	.	.	.	.
.	.	.	-sa-	.	(A	.	.	.	.
=25	=25	=25	=25	=25	=25	=25	=25	=25	=25
2-VI	G-:maj	.	-tion!	.	a)	47.573	.	voice	2G-- 2b-- 2dd--
.	.	.	_	.	.	.	.	.	.
.	.	.	_	bom,	.	.	.	.	.
.	.	.	_	.	.	.	.	.	.
.	.	.	_	_	.	.	.	.	.
.	.	.	.	bom,	.	.	.	.	.
.	.	.	_	.	.	.	.	.	.
2-VII	A-:maj	.	.	bom,	.	48.562	.	.	2A- 2cc 2ee-
.	.	.	.	bom,	.	.	.	.	.
.	.	.	.	_	.	.	.	.	.
.	.	.	.	bom.	.	.	.	.	.
=26	=26	=26	=26	=26	=26	=26	=26	=26	=26
*>Letter>A	*>Letter>A	*>Letter>A	*>Letter>A	*>Letter>A	*>Letter>A	*>Letter>A	*>Letter>A	*>Letter>A	*>Letter>A
*>Label>Verse	*>Label>Verse	*>Label>Verse	*>Label>Verse	*>Label>Verse	*>Label>Verse	*>Label>Verse	*>Label>Verse	*>Label>Verse	*>Label>Verse
2-VII	A-:1	Yo!	Ooh!	.	.	49.551	newline	voice	2A- 2cc 2ee-
.	.	.	.	.	.	.	.	.	.
.	.	.	_	.	.	.	.	.	.
.	.	.	.	.	.	.	.	.	.
.	.	It's	.	.	.	.	.	.	.
.	.	a-	.	.	.	.	.	.	.
2i	B-:1	-bout	.	.	.	50.537	.	.	2B- 2dd- 2ff
.	.	that	.	.	.	.	.	.	.
.	.	time,	.	.	A	.	.	.	.
.	.	_	.	.	.	.	.	.	.
.	.	.	.	.	.	.	.	.	.
.	.	to	.	.	.	.	.	.	.
=27	=27	=27	=27	=27	=27	=27	=27	=27	=27
2-VI	G-:1	bring	.	.	.	51.524	.	voice	2G-- 2b-- 2dd--
.	.	.	.	.	.	.	.	.	.
.	.	forth	.	.	.	.	.	.	.
.	.	.	.	.	.	.	.	.	.
.	.	the	.	.	.	.	.	.	.
2-VII	A-:1	rhy-	.	.	.	52.511	.	.	2A- 2cc 2ee-
.	.	-thm	.	.	.	.	.	.	.
.	.	and	.	.	.	.	.	.	.
.	.	the	.	.	.	.	.	.	.
.	.	rhyme!	.	.	A	.	.	.	.
.	.	.	.	.	.	.	.	.	.
=28	=28	=28	=28	=28	=28	=28	=28	=28	=28
2-VII	A-:1	.	Ooh!	.	.	53.497	.	voice	2A- 2cc 2ee-
.	.	I'm'ma	.	.	.	.	.	.	.
.	.	_	_	.	.	.	.	.	.
.	.	get	.	.	.	.	.	.	.
.	.	mine,	.	.	A	.	.	.	.
2i	B-:1	.	.	.	.	54.484	.	.	2B- 2dd- 2ff
.	.	so	.	.	.	.	.	.	.
.	.	get	.	.	.	.	.	.	.
.	.	yours!	.	.	B	.	.	.	.
.	.	.	.	.	.	.	.	.	.
=29	=29	=29	=29	=29	=29	=29	=29	=29	=29
2-VI	G-:1	.	.	.	.	55.471	.	voice	2G-- 2b-- 2dd--
.	.	I	.	.	.	.	.	.	.
.	.	wan-	.	.	.	.	.	.	.
.	.	-na	.	.	.	.	.	.	.
.	.	see	.	.	.	.	.	.	.
.	.	sweat	.	.	.	.	.	.	.
2-VII	A-:1	co-	.	.	.	56.457	.	.	2A- 2cc 2ee-
.	.	-min'	.	.	.	.	.	.	.
.	.	out	.	.	.	.	.	.	.
.	.	your	.	.	.	.	.	.	.
.	.	pores!	.	.	B	.	.	.	.
.	.	.	.	.	.	.	.	.	.
=30	=30	=30	=30	=30	=30	=30	=30	=30	=30
2-VII	A-:1	On	Ooh!	.	.	57.444	newline	voice	2A- 2cc 2ee-
.	.	the	.	.	.	.	.	.	.
.	.	house	_	.	.	.	.	.	.
.	.	_	.	.	.	.	.	.	.
.	.	tip	.	.	C	.	.	.	.
.	.	is	.	.	.	.	.	.	.
2i	B-:1	how	.	.	.	58.432	.	.	2B- 2dd- 2ff
.	.	I'm	.	.	.	.	.	.	.
.	.	swing-	.	.	.	.	.	.	.
.	.	-in'	.	.	.	.	.	.	.
.	.	this,	.	.	.	.	.	.	.
.	.	.	.	.	.	.	.	.	.
=31	=31	=31	=31	=31	=31	=31	=31	=31	=31
2-VI	G-:1	Strict-	.	.	.	59.421	.	voice	2G-- 2b-- 2dd--
.	.	-ly	.	.	.	.	.	.	.
.	.	hip	.	.	C	.	.	.	.
.	.	.	.	.	.	.	.	.	.
.	.	hop,	.	.	.	.	.	.	.
.	.	boy,	.	.	.	.	.	.	.
2-VII	A-:1	I	.	.	.	60.409	.	.	2A- 2cc 2ee-
.	.	ain't	.	.	.	.	.	.	.
.	.	sing-	.	.	.	.	.	.	.
.	.	-in'	.	.	.	.	.	.	.
.	.	this!	.	.	.	.	.	.	.
.	.	.	.	.	.	.	.	.	.
=32	=32	=32	=32	=32	=32	=32	=32	=32	=32
2-VII	A-:1	Bring-	Ooh!	.	.	61.398	.	voice	2A- 2cc 2ee-
.	.	-in'	.	.	.	.	.	.	.
.	.	this	.	.	.	.	.	.	.
.	.	.	_	.	.	.	.	.	.
.	.	.	.	.	.	.	.	.	.
.	.	to	.	.	.	.	.	.	.
.	.	the	.	.	.	.	.	.	.
.	.	en-	.	.	.	.	.	.	.
2i	B-:1	-ti-	.	.	.	62.386	.	.	2B- 2dd- 2ff
.	.	-re	.	.	.	.	.	.	.
.	.	na	.	.	(A	.	.	.	.
.	.	_	.	.	.	.	.	.	.
.	.	tion,	.	.	a)	.	.	.	.
.	.	.	.	.	.	.	.	.	.
=33	=33	=33	=33	=33	=33	=33	=33	=33	=33
2-VI	G-:1	black,	.	.	.	63.374	.	voice	2G-- 2b-- 2dd--
.	.	.	.	.	.	.	.	.	.
.	.	white,	.	.	.	.	.	.	.
.	.	.	.	.	.	.	.	.	.
.	.	brown,	.	.	.	.	.	.	.
.	.	.	.	.	.	.	.	.	.
2-VII	A-:1	.	.	.	.	64.363	.	.	2A- 2cc 2ee-
.	.	red,	.	.	.	.	.	.	.
.	.	feel	.	.	.	.	.	.	.
.	.	_	.	.	.	.	.	.	.
.	.	the	.	.	.	.	.	.	.
.	.	vi-	.	.	.	.	.	.	.
=34	=34	=34	=34	=34	=34	=34	=34	=34	=34
*>Letter>B	*>Letter>B	*>Letter>B	*>Letter>B	*>Letter>B	*>Letter>B	*>Letter>B	*>Letter>B	*>Letter>B	*>Letter>B
*>Label>Prechorus	*>Label>Prechorus	*>Label>Prechorus	*>Label>Prechorus	*>Label>Prechorus	*>Label>Prechorus	*>Label>Prechorus	*>Label>Prechorus	*>Label>Prechorus	*>Label>Prechorus
2-VII	A-:maj	-bra-	.	.	(A	65.351	newline	voice	2A- 2cc 2ee-
.	.	-tion!	.	.	a)	.	.	.	.
.	.	.	.	.	.	.	.	.	.
2id	B-:min/b7	Come	.	.	.	66.337	.	.	2b- 2dd- 2ff
.	.	on,	.	.	.	.	.	.	.
.	.	come	.	.	.	.	.	.	.
.	.	on!	.	.	.	.	.	.	.
=35	=35	=35	=35	=35	=35	=35	=35	=35	=35
2-VI	G-:maj	_	.	.	.	67.322	.	voice	2G-- 2b-- 2dd--
.	.	.	.	.	.	.	.	.	.
.	.	.	.	.	.	.	.	.	.
2-VII	A-:maj	Feel	.	.	.	68.307	.	.	2A- 2cc 2ee-
.	.	it,	.	.	.	.	.	.	.
.	.	feel	.	.	.	.	.	.	.
.	.	it!	.	.	.	.	.	.	.
=36	=36	=36	=36	=36	=36	=36	=36	=36	=36
2-VII	A-:maj	.	.	.	.	69.292	.	voice	2A- 2cc 2ee-
2id	B-:min/b7	.	.	.	.	70.277	.	.	2b- 2dd- 2ff
.	.	Feel	.	.	.	.	.	.	.
.	.	_	.	.	.	.	.	.	.
.	.	the	.	.	.	.	.	.	.
.	.	vi-	.	.	.	.	.	.	.
=37	=37	=37	=37	=37	=37	=37	=37	=37	=37
2-VI	G-:maj	-bra-	.	.	(A	71.262	.	voice	2G-- 2b-- 2dd--
.	.	-tion!	.	.	a)	.	.	.	.
.	.	.	.	.	.	.	.	.	.
2-VII	A-:maj	.	.	.	.	72.248	.	.	2A- 2cc 2ee-
.	.	.	It's	.	.	.	.	.	.
.	.	.	such	.	.	.	.	.	.
.	.	.	a	.	.	.	.	.	.
=38	=38	=38	=38	=38	=38	=38	=38	=38	=38
*>Letter>B	*>Letter>B	*>Letter>B	*>Letter>B	*>Letter>B	*>Letter>B	*>Letter>B	*>Letter>B	*>Letter>B	*>Letter>B
*>Label>Chorus	*>Label>Chorus	*>Label>Chorus	*>Label>Chorus	*>Label>Chorus	*>Label>Chorus	*>Label>Chorus	*>Label>Chorus	*>Label>Chorus	*>Label>Chorus
2-VII	A-:maj	.	.	.	.	73.233	newline	voice	2A- 2cc 2ee-
.	.	.	good	Bom,	.	.	.	.	.
.	.	.	.	_	.	.	.	.	.
.	.	.	.	bom,	.	.	.	.	.
.	.	.	vi-	.	.	.	.	.	.
2i7	B-:min7	.	-bra-	bom,	(A	74.221	.	.	2B- 2dd- 2ff 2aa
.	.	.	-tion!	.	a)	.	.	.	.
.	.	.	.	bom,	.	.	.	.	.
.	.	.	_	_	.	.	.	.	.
.	.	.	.	bom,	.	.	.	.	.
.	.	.	.	.	.	.	.	.	.
=39	=39	=39	=39	=39	=39	=39	=39	=39	=39
2-VI	G-:maj	.	.	.	.	75.21	.	voice	2G-- 2b-- 2dd--
.	.	.	.	bom,	.	.	.	.	.
.	.	.	.	_	.	.	.	.	.
.	.	.	.	bom,	.	.	.	.	.
2-VII	A-:maj	.	.	bom,	.	76.198	.	.	2A- 2cc 2ee-
.	.	.	It's	.	.	.	.	.	.
.	.	.	.	bom,	.	.	.	.	.
.	.	.	such	_	.	.	.	.	.
.	.	.	.	bom.	.	.	.	.	.
.	.	.	a	.	.	.	.	.	.
=40	=40	=40	=40	=40	=40	=40	=40	=40	=40
2-VII	A-:maj	.	.	.	.	77.187	.	voice	2A- 2cc 2ee-
.	.	.	sweet	Bom,	.	.	.	.	.
.	.	.	_	_	.	.	.	.	.
.	.	.	.	bom,	.	.	.	.	.
.	.	.	_	.	.	.	.	.	.
2i7	B-:min7	.	_	bom,	.	78.176	.	.	2B- 2dd- 2ff 2aa
.	.	.	sen-	.	.	.	.	.	.
.	.	.	.	bom,	.	.	.	.	.
.	.	.	.	_	.	.	.	.	.
.	.	.	.	bom,	.	.	.	.	.
.	.	.	-sa-	.	(A	.	.	.	.
=41	=41	=41	=41	=41	=41	=41	=41	=41	=41
2-VI	G-:maj	.	-tion!	.	a)	79.164	.	voice	2G-- 2b-- 2dd--
.	.	.	_	.	.	.	.	.	.
.	.	.	_	bom,	.	.	.	.	.
.	.	.	_	.	.	.	.	.	.
.	.	.	_	_	.	.	.	.	.
.	.	.	.	bom,	.	.	.	.	.
.	.	.	_	.	.	.	.	.	.
2-VII	A-:maj	.	.	bom,	.	80.153	.	.	2A- 2cc 2ee-
.	.	.	It's	.	.	.	.	.	.
.	.	.	.	bom,	.	.	.	.	.
.	.	.	such	_	.	.	.	.	.
.	.	.	.	bom.	.	.	.	.	.
.	.	.	a	.	.	.	.	.	.
=42	=42	=42	=42	=42	=42	=42	=42	=42	=42
2-VII	A-:maj	.	.	.	.	81.141	newline	voice	2A- 2cc 2ee-
.	.	.	good	Bom,	.	.	.	.	.
.	.	.	.	_	.	.	.	.	.
.	.	.	.	bom,	.	.	.	.	.
.	.	.	vi-	.	.	.	.	.	.
2i7	B-:min7	.	-bra-	bom,	.	82.125	.	.	2B- 2dd- 2ff 2aa
.	.	.	-tion!	.	.	.	.	.	.
.	.	.	.	bom,	.	.	.	.	.
.	.	.	_	_	.	.	.	.	.
.	.	.	.	bom,	.	.	.	.	.
.	.	.	.	.	.	.	.	.	.
=43	=43	=43	=43	=43	=43	=43	=43	=43	=43
2-VI	G-:maj	.	.	.	.	83.109	.	voice	2G-- 2b-- 2dd--
.	.	.	.	bom,	.	.	.	.	.
.	.	.	.	_	.	.	.	.	.
.	.	.	.	bom,	.	.	.	.	.
2-VII	A-:maj	.	.	bom,	.	84.092	.	.	2A- 2cc 2ee-
.	.	.	It's	.	.	.	.	.	.
.	.	.	.	bom,	.	.	.	.	.
.	.	.	such	_	.	.	.	.	.
.	.	.	.	bom.	.	.	.	.	.
.	.	.	a	.	.	.	.	.	.
=44	=44	=44	=44	=44	=44	=44	=44	=44	=44
2-VII	A-:maj	.	.	.	.	85.076	.	voice	2A- 2cc 2ee-
.	.	.	sweet	Bom,	.	.	.	.	.
.	.	.	_	_	.	.	.	.	.
.	.	.	.	bom,	.	.	.	.	.
.	.	.	_	.	.	.	.	.	.
2i7	B-:min7	.	_	bom,	.	86.06	.	.	2B- 2dd- 2ff 2aa
.	.	.	sen-	.	.	.	.	.	.
.	.	.	.	bom,	.	.	.	.	.
.	.	.	.	_	.	.	.	.	.
.	.	.	.	bom,	.	.	.	.	.
.	.	.	-sa-	.	.	.	.	.	.
=45	=45	=45	=45	=45	=45	=45	=45	=45	=45
2-VI	G-:maj	.	-tion!	.	.	87.044	.	voice	2G-- 2b-- 2dd--
.	.	.	_	.	.	.	.	.	.
.	.	.	_	bom,	.	.	.	.	.
.	.	.	_	.	.	.	.	.	.
.	.	.	_	_	.	.	.	.	.
.	.	.	.	bom,	.	.	.	.	.
.	.	.	_	.	.	.	.	.	.
2-VII	A-:maj	.	.	bom,	.	88.027	.	.	2A- 2cc 2ee-
.	.	.	.	bom,	.	.	.	.	.
.	.	.	.	_	.	.	.	.	.
.	.	.	.	bom.	.	.	.	.	.
=46	=46	=46	=46	=46	=46	=46	=46	=46	=46
*>Letter>A	*>Letter>A	*>Letter>A	*>Letter>A	*>Letter>A	*>Letter>A	*>Letter>A	*>Letter>A	*>Letter>A	*>Letter>A
*>Label>Verse	*>Label>Verse	*>Label>Verse	*>Label>Verse	*>Label>Verse	*>Label>Verse	*>Label>Verse	*>Label>Verse	*>Label>Verse	*>Label>Verse
2-VII	A-:1	.	Ooh!	.	.	89.011	newline	voice	2A- 2cc 2ee-
.	.	The	.	.	.	.	.	.	.
.	.	vi-	.	.	.	.	.	.	.
.	.	.	_	.	.	.	.	.	.
.	.	-bra-	.	.	.	.	.	.	.
.	.	-tions,	.	.	.	.	.	.	.
2i	B-:1	good	.	.	.	90.002	.	.	2B- 2dd- 2ff
.	.	like	.	.	.	.	.	.	.
.	.	Sun-	.	.	.	.	.	.	.
.	.	-kist,	.	.	D	.	.	.	.
=47	=47	=47	=47	=47	=47	=47	=47	=47	=47
2-VI	G-:1	.	.	.	.	90.993	.	voice	2G-- 2b-- 2dd--
.	.	ma-	.	.	.	.	.	.	.
.	.	-ny	.	.	.	.	.	.	.
.	.	wan-	.	.	.	.	.	.	.
.	.	-na	.	.	.	.	.	.	.
2-VII	A-:1	know	.	.	.	91.985	.	.	2A- 2cc 2ee-
.	.	who	.	.	.	.	.	.	.
.	.	done	.	.	.	.	.	.	.
.	.	_	.	.	.	.	.	.	.
.	.	this!	.	.	D	.	.	.	.
=48	=48	=48	=48	=48	=48	=48	=48	=48	=48
2-VII	A-:1	.	Ooh!	.	.	92.976	.	voice	2A- 2cc 2ee-
.	.	Mar-	.	.	.	.	.	.	.
.	.	-ky	_	.	.	.	.	.	.
.	.	Mark,	.	.	.	.	.	.	.
.	.	.	.	.	.	.	.	.	.
.	.	and	.	.	.	.	.	.	.
2i	B-:1	I'm	.	.	.	93.967	.	.	2B- 2dd- 2ff
.	.	here	.	.	.	.	.	.	.
.	.	to	.	.	.	.	.	.	.
.	.	move	.	.	.	.	.	.	.
.	.	you,	.	.	.	.	.	.	.
=49	=49	=49	=49	=49	=49	=49	=49	=49	=49
2-VI	G-:1	rhymes	.	.	.	94.958	.	voice	2G-- 2b-- 2dd--
.	.	will	.	.	.	.	.	.	.
.	.	groove	.	.	.	.	.	.	.
.	.	_	.	.	.	.	.	.	.
.	.	you.	.	.	.	.	.	.	.
.	.	.	.	.	.	.	.	.	.
.	.	and	.	.	.	.	.	.	.
2-VII	A-:1	I'm	.	.	.	95.95	.	.	2A- 2cc 2ee-
.	.	here	.	.	.	.	.	.	.
.	.	to	.	.	.	.	.	.	.
.	.	prove	.	.	.	.	.	.	.
.	.	to	.	.	.	.	.	.	.
.	.	you,	.	.	.	.	.	.	.
=50	=50	=50	=50	=50	=50	=50	=50	=50	=50
2-VII	A-:1	.	Ooh!	.	.	96.941	newline	voice	2A- 2cc 2ee-
.	.	that	.	.	.	.	.	.	.
.	.	we	.	.	.	.	.	.	.
.	.	can	_	.	.	.	.	.	.
.	.	par-	.	.	.	.	.	.	.
.	.	-ty	.	.	.	.	.	.	.
.	.	on	.	.	.	.	.	.	.
.	.	the	.	.	.	.	.	.	.
2i	B-:1	po-	.	.	.	97.925	.	.	2B- 2dd- 2ff
.	.	-si-	.	.	.	.	.	.	.
.	.	-tive	.	.	.	.	.	.	.
.	.	side	.	.	B	.	.	.	.
.	.	_	.	.	.	.	.	.	.
.	.	and	.	.	.	.	.	.	.
.	.	pump	.	.	.	.	.	.	.
=51	=51	=51	=51	=51	=51	=51	=51	=51	=51
2-VI	G-:1	po-	.	.	.	98.909	.	voice	2G-- 2b-- 2dd--
.	.	-si-	.	.	.	.	.	.	.
.	.	-tive	.	.	.	.	.	.	.
.	.	vibes,	.	.	B	.	.	.	.
.	.	_	.	.	.	.	.	.	.
.	.	so	.	.	.	.	.	.	.
.	.	come	.	.	.	.	.	.	.
.	.	a-	.	.	.	.	.	.	.
2-VII	A-:1	-long	.	.	.	99.894	.	.	2A- 2cc 2ee-
.	.	for	.	.	.	.	.	.	.
.	.	the	.	.	.	.	.	.	.
.	.	ride!	.	.	B	.	.	.	.
.	.	.	.	.	.	.	.	.	.
=52	=52	=52	=52	=52	=52	=52	=52	=52	=52
2-VII	A-:1	Ma-	Ooh!	.	.	100.878	.	voice	2A- 2cc 2ee-
.	.	-kin'	.	.	.	.	.	.	.
.	.	you	.	.	.	.	.	.	.
.	.	.	_	.	.	.	.	.	.
.	.	feel	.	.	.	.	.	.	.
.	.	the	.	.	.	.	.	.	.
.	.	rhy-	.	.	.	.	.	.	.
2i	B-:1	-thm	.	.	.	101.862	.	.	2B- 2dd- 2ff
.	.	is	.	.	.	.	.	.	.
.	.	my	.	.	.	.	.	.	.
.	.	oc-	.	.	.	.	.	.	.
.	.	-cu-	.	.	.	.	.	.	.
=53	=53	=53	=53	=53	=53	=53	=53	=53	=53
2-VI	G-:1	-pa-	.	.	(A	102.846	.	voice	2G-- 2b-- 2dd--
.	.	-tion,	.	.	a)	.	.	.	.
.	.	.	.	.	.	.	.	.	.
.	.	so	.	.	.	.	.	.	.
.	.	feel	.	.	.	.	.	.	.
2-VII	A-:1	_	.	.	.	103.831	.	.	2A- 2cc 2ee-
.	.	the	.	.	.	.	.	.	.
.	.	vi-	.	.	.	.	.	.	.
.	.	-bra-	.	.	(A	.	.	.	.
.	.	-tion!	.	.	a)	.	.	.	.
=54	=54	=54	=54	=54	=54	=54	=54	=54	=54
*>Letter>B	*>Letter>B	*>Letter>B	*>Letter>B	*>Letter>B	*>Letter>B	*>Letter>B	*>Letter>B	*>Letter>B	*>Letter>B
*>Label>Prechorus	*>Label>Prechorus	*>Label>Prechorus	*>Label>Prechorus	*>Label>Prechorus	*>Label>Prechorus	*>Label>Prechorus	*>Label>Prechorus	*>Label>Prechorus	*>Label>Prechorus
2-VII	A-:maj	.	.	.	.	104.815	newline	voice	2A- 2cc 2ee-
2id	B-:min/b7	Come	.	.	.	105.804	.	.	2b- 2dd- 2ff
.	.	on,	.	.	.	.	.	.	.
.	.	come	.	.	.	.	.	.	.
.	.	on!	.	.	.	.	.	.	.
=55	=55	=55	=55	=55	=55	=55	=55	=55	=55
2-VI	G-:maj	_	.	.	.	106.793	.	voice	2G-- 2b-- 2dd--
.	.	.	.	.	.	.	.	.	.
.	.	.	.	.	.	.	.	.	.
2-VII	A-:maj	Feel	.	.	.	107.782	.	.	2A- 2cc 2ee-
.	.	it,	.	.	.	.	.	.	.
.	.	feel	.	.	.	.	.	.	.
.	.	it!	.	.	.	.	.	.	.
=56	=56	=56	=56	=56	=56	=56	=56	=56	=56
2-VII	A-:maj	.	.	.	.	108.771	.	voice	2A- 2cc 2ee-
2id	B-:min/b7	.	.	.	.	109.759	.	.	2b- 2dd- 2ff
.	.	Feel	.	.	.	.	.	.	.
.	.	_	.	.	.	.	.	.	.
.	.	the	.	.	.	.	.	.	.
.	.	vi-	.	.	.	.	.	.	.
=57	=57	=57	=57	=57	=57	=57	=57	=57	=57
2-VI	G-:maj	-bra-	.	.	(A	110.748	.	voice	2G-- 2b-- 2dd--
.	.	-tion!	.	.	a)	.	.	.	.
.	.	.	.	.	.	.	.	.	.
2-VII	A-:maj	.	.	.	.	111.737	.	.	2A- 2cc 2ee-
.	.	.	It's	.	.	.	.	.	.
.	.	.	such	.	.	.	.	.	.
.	.	.	a	.	.	.	.	.	.
=58	=58	=58	=58	=58	=58	=58	=58	=58	=58
*>Letter>B	*>Letter>B	*>Letter>B	*>Letter>B	*>Letter>B	*>Letter>B	*>Letter>B	*>Letter>B	*>Letter>B	*>Letter>B
*>Label>Chorus	*>Label>Chorus	*>Label>Chorus	*>Label>Chorus	*>Label>Chorus	*>Label>Chorus	*>Label>Chorus	*>Label>Chorus	*>Label>Chorus	*>Label>Chorus
2-VII	A-:maj	.	.	.	.	112.726	newline	voice	2A- 2cc 2ee-
.	.	.	good	Bom,	.	.	.	.	.
.	.	.	.	_	.	.	.	.	.
.	.	.	.	bom,	.	.	.	.	.
.	.	.	vi-	.	.	.	.	.	.
2i7	B-:min7	.	-bra-	bom,	(A	113.71	.	.	2B- 2dd- 2ff 2aa
.	.	.	-tion!	.	a)	.	.	.	.
.	.	.	.	bom,	.	.	.	.	.
.	.	.	_	_	.	.	.	.	.
.	.	.	.	bom,	.	.	.	.	.
.	.	.	.	.	.	.	.	.	.
=59	=59	=59	=59	=59	=59	=59	=59	=59	=59
2-VI	G-:maj	.	.	.	.	114.693	.	voice	2G-- 2b-- 2dd--
.	.	.	.	bom,	.	.	.	.	.
.	.	.	.	_	.	.	.	.	.
.	.	.	.	bom,	.	.	.	.	.
2-VII	A-:maj	.	.	bom,	.	115.676	.	.	2A- 2cc 2ee-
.	.	.	It's	.	.	.	.	.	.
.	.	.	.	bom,	.	.	.	.	.
.	.	.	such	_	.	.	.	.	.
.	.	.	.	bom.	.	.	.	.	.
.	.	.	a	.	.	.	.	.	.
=60	=60	=60	=60	=60	=60	=60	=60	=60	=60
2-VII	A-:maj	.	.	.	.	116.66	.	voice	2A- 2cc 2ee-
.	.	.	sweet	Bom,	.	.	.	.	.
.	.	.	_	_	.	.	.	.	.
.	.	.	.	bom,	.	.	.	.	.
.	.	.	_	.	.	.	.	.	.
2i7	B-:min7	.	_	bom,	.	117.643	.	.	2B- 2dd- 2ff 2aa
.	.	.	sen-	.	.	.	.	.	.
.	.	.	.	bom,	.	.	.	.	.
.	.	.	.	_	.	.	.	.	.
.	.	.	.	bom,	.	.	.	.	.
.	.	.	-sa-	.	(A	.	.	.	.
=61	=61	=61	=61	=61	=61	=61	=61	=61	=61
2-VI	G-:maj	.	-tion!	.	a)	118.627	.	voice	2G-- 2b-- 2dd--
.	.	.	_	.	.	.	.	.	.
.	.	.	_	bom,	.	.	.	.	.
.	.	.	_	.	.	.	.	.	.
.	.	.	_	_	.	.	.	.	.
.	.	.	.	bom,	.	.	.	.	.
.	.	.	_	.	.	.	.	.	.
2-VII	A-:maj	.	.	bom,	.	119.61	.	.	2A- 2cc 2ee-
.	.	.	It's	.	.	.	.	.	.
.	.	.	.	bom,	.	.	.	.	.
.	.	.	such	_	.	.	.	.	.
.	.	.	.	bom.	.	.	.	.	.
.	.	.	a	.	.	.	.	.	.
=62	=62	=62	=62	=62	=62	=62	=62	=62	=62
2-VII	A-:maj	.	.	.	.	120.594	newline	voice	2A- 2cc 2ee-
.	.	.	good	Bom,	.	.	.	.	.
.	.	.	.	_	.	.	.	.	.
.	.	.	.	bom,	.	.	.	.	.
.	.	.	vi-	.	.	.	.	.	.
2i7	B-:min7	.	-bra-	bom,	.	121.579	.	.	2B- 2dd- 2ff 2aa
.	.	.	-tion!	.	.	.	.	.	.
.	.	.	.	bom,	.	.	.	.	.
.	.	.	_	_	.	.	.	.	.
.	.	.	.	bom,	.	.	.	.	.
.	.	.	.	.	.	.	.	.	.
=63	=63	=63	=63	=63	=63	=63	=63	=63	=63
2-VI	G-:maj	.	.	.	.	122.564	.	voice	2G-- 2b-- 2dd--
.	.	.	.	bom,	.	.	.	.	.
.	.	.	.	_	.	.	.	.	.
.	.	.	.	bom,	.	.	.	.	.
2-VII	A-:maj	.	.	bom,	.	123.55	.	.	2A- 2cc 2ee-
.	.	.	It's	.	.	.	.	.	.
.	.	.	.	bom,	.	.	.	.	.
.	.	.	such	_	.	.	.	.	.
.	.	.	.	bom.	.	.	.	.	.
.	.	.	a	.	.	.	.	.	.
=64	=64	=64	=64	=64	=64	=64	=64	=64	=64
2-VII	A-:maj	.	.	.	.	124.535	.	voice	2A- 2cc 2ee-
.	.	.	sweet	Bom,	.	.	.	.	.
.	.	.	_	_	.	.	.	.	.
.	.	.	.	bom,	.	.	.	.	.
.	.	.	_	.	.	.	.	.	.
2i7	B-:min7	.	_	bom,	.	125.52	.	.	2B- 2dd- 2ff 2aa
.	.	.	sen-	.	.	.	.	.	.
.	.	.	.	bom,	.	.	.	.	.
.	.	.	.	_	.	.	.	.	.
.	.	.	.	bom,	.	.	.	.	.
.	.	.	-sa-	.	.	.	.	.	.
=65	=65	=65	=65	=65	=65	=65	=65	=65	=65
2-VI	G-:maj	.	-tion!	.	.	126.505	.	voice	2G-- 2b-- 2dd--
.	.	.	_	.	.	.	.	.	.
.	.	.	_	bom,	.	.	.	.	.
.	.	.	_	.	.	.	.	.	.
.	.	.	_	_	.	.	.	.	.
.	.	.	.	bom,	.	.	.	.	.
.	.	Don-	_	.	.	.	.	.	.
.	.	-nie	.	.	.	.	.	.	.
2-VII	A-:maj	D,	.	bom,	.	127.491	.	.	2A- 2cc 2ee-
.	.	break	.	.	.	.	.	.	.
.	.	it	.	bom,	.	.	.	.	.
.	.	down!	.	_	.	.	.	.	.
.	.	.	.	bom.	.	.	.	.	.
.	.	.	.	.	.	.	.	.	.
=66	=66	=66	=66	=66	=66	=66	=66	=66	=66
*>Letter>C	*>Letter>C	*>Letter>C	*>Letter>C	*>Letter>C	*>Letter>C	*>Letter>C	*>Letter>C	*>Letter>C	*>Letter>C
*>Label>Bridge	*>Label>Bridge	*>Label>Bridge	*>Label>Bridge	*>Label>Bridge	*>Label>Bridge	*>Label>Bridge	*>Label>Bridge	*>Label>Bridge	*>Label>Bridge
1r	N	.	.	.	.	128.476	newline	drums	1r
=67	=67	=67	=67	=67	=67	=67	=67	=67	=67
1r	N	.	.	.	.	129.464	.	drums	1r
=68	=68	=68	=68	=68	=68	=68	=68	=68	=68
1r	N	.	.	.	.	130.452	.	drums	1r
=69	=69	=69	=69	=69	=69	=69	=69	=69	=69
1r	N	.	.	.	.	131.44	.	drums	1r
=70	=70	=70	=70	=70	=70	=70	=70	=70	=70
1r	N	.	.	.	.	136.379	newline	drums	1r
=71	=71	=71	=71	=71	=71	=71	=71	=71	=71
1r	N	.	.	.	.	137.364	.	drums	1r
=72	=72	=72	=72	=72	=72	=72	=72	=72	=72
1r	N	.	.	.	.	138.348	.	drums	1r
=73	=73	=73	=73	=73	=73	=73	=73	=73	=73
1r	N	.	.	.	.	139.333	.	drums	1r
=74	=74	=74	=74	=74	=74	=74	=74	=74	=74
*>Letter>A	*>Letter>A	*>Letter>A	*>Letter>A	*>Letter>A	*>Letter>A	*>Letter>A	*>Letter>A	*>Letter>A	*>Letter>A
*>Label>Verse	*>Label>Verse	*>Label>Verse	*>Label>Verse	*>Label>Verse	*>Label>Verse	*>Label>Verse	*>Label>Verse	*>Label>Verse	*>Label>Verse
2-VII	A-:1	.	Ooh!	.	.	144.256	newline	voice	2A- 2cc 2ee-
.	.	.	.	Bom,	.	.	.	.	.
.	.	.	_	.	.	.	.	.	.
.	.	Don-	.	_	.	.	.	.	.
.	.	.	.	bom,	.	.	.	.	.
.	.	-nie	.	.	.	.	.	.	.
.	.	D's	.	.	.	.	.	.	.
2i	B-:1	_	.	bom,	.	145.249	.	.	2B- 2dd- 2ff
.	.	on	.	.	.	.	.	.	.
.	.	the	.	bom,	.	.	.	.	.
.	.	back-	.	_	E	.	.	.	.
.	.	.	.	bom,	.	.	.	.	.
.	.	-up,	.	.	.	.	.	.	.
=75	=75	=75	=75	=75	=75	=75	=75	=75	=75
2-VI	G-:1	.	.	.	.	146.243	.	voice	2G-- 2b-- 2dd--
.	.	drug	.	bom,	.	.	.	.	.
.	.	_	.	_	.	.	.	.	.
.	.	free,	.	bom,	.	.	.	.	.
.	.	.	.	.	.	.	.	.	.
2-VII	A-:1	.	.	bom,	.	147.236	.	.	2A- 2cc 2ee-
.	.	so	.	.	.	.	.	.	.
.	.	put	.	.	.	.	.	.	.
.	.	the	.	bom,	.	.	.	.	.
.	.	crack	.	_	E	.	.	.	.
.	.	.	.	bom.	.	.	.	.	.
.	.	up!	.	.	.	.	.	.	.
=76	=76	=76	=76	=76	=76	=76	=76	=76	=76
2-VII	A-:1	.	Ooh!	.	.	148.23	.	voice	2A- 2cc 2ee-
.	.	No	.	Bom,	.	.	.	.	.
.	.	.	_	.	.	.	.	.	.
.	.	need	.	_	F	.	.	.	.
.	.	.	.	bom,	.	.	.	.	.
.	.	for	.	.	.	.	.	.	.
.	.	speed,	.	.	F	.	.	.	.
2i	B-:1	_	.	bom,	.	149.223	.	.	2B- 2dd- 2ff
.	.	I'm	.	.	.	.	.	.	.
.	.	an	.	bom,	.	.	.	.	.
.	.	_	.	_	.	.	.	.	.
.	.	ti	.	bom,	.	.	.	.	.
=77	=77	=77	=77	=77	=77	=77	=77	=77	=77
2-VI	G-:1	D-	.	.	.	150.216	.	voice	2G-- 2b-- 2dd--
.	.	-R	.	.	.	.	.	.	.
.	.	.	.	bom,	.	.	.	.	.
.	.	U-	.	.	.	.	.	.	.
.	.	.	.	_	.	.	.	.	.
.	.	-G-	.	bom,	F	.	.	.	.
.	.	.	.	.	.	.	.	.	.
.	.	-G-	.	.	F	.	.	.	.
2-VII	A-:1	.	.	bom,	.	151.21	.	.	2A- 2cc 2ee-
.	.	-I-	.	.	.	.	.	.	.
.	.	.	.	.	.	.	.	.	.
.	.	-E	.	bom,	F	.	.	.	.
.	.	.	.	_	.	.	.	.	.
.	.	my	.	bom.	.	.	.	.	.
=78	=78	=78	=78	=78	=78	=78	=78	=78	=78
2-VII	A-:1	bo-	Ooh!	.	.	152.203	newline	voice	2A- 2cc 2ee-
.	.	-dy	.	.	.	.	.	.	.
.	.	is	.	.	.	.	.	.	.
.	.	.	_	.	.	.	.	.	.
.	.	heal-	.	.	(G	.	.	.	.
.	.	-thy,	.	.	g)	.	.	.	.
2i	B-:1	.	.	.	.	153.182	.	.	2B- 2dd- 2ff
.	.	my	.	.	.	.	.	.	.
.	.	rhymes	.	.	.	.	.	.	.
.	.	_	.	.	.	.	.	.	.
.	.	make	.	.	.	.	.	.	.
.	.	me	.	.	.	.	.	.	.
=79	=79	=79	=79	=79	=79	=79	=79	=79	=79
2-VI	G-:1	weal-	.	.	(G	154.161	.	voice	2G-- 2b-- 2dd--
.	.	-thy,	.	.	g)	.	.	.	.
.	.	.	.	.	.	.	.	.	.
.	.	and	.	.	.	.	.	.	.
.	.	the	.	.	.	.	.	.	.
2-VII	A-:1	Fun-	.	.	.	155.14	.	.	2A- 2cc 2ee-
.	.	-ky	.	.	.	.	.	.	.
.	.	Bunch	.	.	.	.	.	.	.
.	.	helps	.	.	(G	.	.	.	.
.	.	me	.	.	g)	.	.	.	.
=80	=80	=80	=80	=80	=80	=80	=80	=80	=80
2-VII	A-:1	.	Ooh!	.	.	156.119	.	voice	2A- 2cc 2ee-
.	.	to	.	.	.	.	.	.	.
.	.	bring	.	.	.	.	.	.	.
.	.	.	_	.	.	.	.	.	.
.	.	you	.	.	.	.	.	.	.
.	.	a	.	.	.	.	.	.	.
2i	B-:1	show	.	.	.	157.098	.	.	2B- 2dd- 2ff
.	.	with	.	.	.	.	.	.	.
.	.	no	.	.	.	.	.	.	.
.	.	in-	.	.	.	.	.	.	.
.	.	-tox-	.	.	.	.	.	.	.
.	.	-i-	.	.	.	.	.	.	.
=81	=81	=81	=81	=81	=81	=81	=81	=81	=81
2-VI	G-:1	-ca-	.	.	(A	158.077	.	voice	2G-- 2b-- 2dd--
.	.	-tion,	.	.	a)	.	.	.	.
.	.	.	.	.	.	.	.	.	.
.	.	so	.	.	.	.	.	.	.
.	.	come	.	.	.	.	.	.	.
.	.	on,	.	.	.	.	.	.	.
2-VII	A-:1	_	.	.	.	159.057	.	.	2A- 2cc 2ee-
.	.	.	.	.	.	.	.	.	.
.	.	feel	.	.	.	.	.	.	.
.	.	_	.	.	.	.	.	.	.
.	.	the	.	.	.	.	.	.	.
.	.	vi-	.	.	.	.	.	.	.
=82	=82	=82	=82	=82	=82	=82	=82	=82	=82
*>Letter>B	*>Letter>B	*>Letter>B	*>Letter>B	*>Letter>B	*>Letter>B	*>Letter>B	*>Letter>B	*>Letter>B	*>Letter>B
*>Label>Prechorus	*>Label>Prechorus	*>Label>Prechorus	*>Label>Prechorus	*>Label>Prechorus	*>Label>Prechorus	*>Label>Prechorus	*>Label>Prechorus	*>Label>Prechorus	*>Label>Prechorus
2-VII	A-:maj	-bra-	.	.	(A	160.036	newline	voice	2A- 2cc 2ee-
.	.	-tion!	.	.	a)	.	.	.	.
.	.	.	.	.	.	.	.	.	.
2id	B-:min/b7	.	.	.	.	161.025	.	.	2b- 2dd- 2ff
.	.	.	.	.	.	.	.	.	.
.	.	Yeah!	.	.	.	.	.	.	.
=83	=83	=83	=83	=83	=83	=83	=83	=83	=83
2-VI	G-:maj	_	.	.	.	162.014	.	voice	2G-- 2b-- 2dd--
.	.	.	.	.	.	.	.	.	.
.	.	.	.	.	.	.	.	.	.
2-VII	A-:maj	.	.	.	.	163.003	.	.	2A- 2cc 2ee-
.	.	.	.	.	.	.	.	.	.
.	.	Can	.	.	.	.	.	.	.
.	.	you	.	.	.	.	.	.	.
=84	=84	=84	=84	=84	=84	=84	=84	=84	=84
2-VII	A-:maj	feel	.	.	.	163.993	.	voice	2A- 2cc 2ee-
.	.	it,	.	.	.	.	.	.	.
.	.	ba-	.	.	.	.	.	.	.
.	.	-by?	.	.	.	.	.	.	.
.	.	.	.	.	.	.	.	.	.
2id	B-:min/b7	.	.	.	.	164.982	.	.	2b- 2dd- 2ff
.	.	.	.	.	.	.	.	.	.
.	.	I	.	.	.	.	.	.	.
=85	=85	=85	=85	=85	=85	=85	=85	=85	=85
2-VI	G-:maj	can,	.	.	.	165.971	.	voice	2G-- 2b-- 2dd--
.	.	too.	.	.	.	.	.	.	.
.	.	.	.	.	.	.	.	.	.
2-VII	A-:maj	.	.	.	.	166.961	.	.	2A- 2cc 2ee-
.	.	.	It's	.	.	.	.	.	.
.	.	.	such	.	.	.	.	.	.
.	.	.	a	.	.	.	.	.	.
=86	=86	=86	=86	=86	=86	=86	=86	=86	=86
*>Letter>B	*>Letter>B	*>Letter>B	*>Letter>B	*>Letter>B	*>Letter>B	*>Letter>B	*>Letter>B	*>Letter>B	*>Letter>B
*>Label>Chorus	*>Label>Chorus	*>Label>Chorus	*>Label>Chorus	*>Label>Chorus	*>Label>Chorus	*>Label>Chorus	*>Label>Chorus	*>Label>Chorus	*>Label>Chorus
2-VII	A-:maj	.	.	.	.	167.95	newline	voice	2A- 2cc 2ee-
.	.	.	good	Bom,	.	.	.	.	.
.	.	.	.	_	.	.	.	.	.
.	.	.	.	bom,	.	.	.	.	.
.	.	.	vi-	.	.	.	.	.	.
2i7	B-:min7	.	-bra-	bom,	(A	168.937	.	.	2B- 2dd- 2ff 2aa
.	.	.	-tion!	.	a)	.	.	.	.
.	.	.	.	bom,	.	.	.	.	.
.	.	.	_	_	.	.	.	.	.
.	.	.	.	bom,	.	.	.	.	.
.	.	.	.	.	.	.	.	.	.
=87	=87	=87	=87	=87	=87	=87	=87	=87	=87
2-VI	G-:maj	.	.	.	.	169.924	.	voice	2G-- 2b-- 2dd--
.	.	.	.	bom,	.	.	.	.	.
.	.	.	.	_	.	.	.	.	.
.	.	.	.	bom,	.	.	.	.	.
2-VII	A-:maj	.	.	bom,	.	170.91	.	.	2A- 2cc 2ee-
.	.	.	It's	.	.	.	.	.	.
.	.	.	.	bom,	.	.	.	.	.
.	.	.	such	_	.	.	.	.	.
.	.	.	.	bom.	.	.	.	.	.
.	.	.	a	.	.	.	.	.	.
=88	=88	=88	=88	=88	=88	=88	=88	=88	=88
2-VII	A-:maj	.	.	.	.	171.897	.	voice	2A- 2cc 2ee-
.	.	.	sweet	Bom,	.	.	.	.	.
.	.	.	_	_	.	.	.	.	.
.	.	.	.	bom,	.	.	.	.	.
.	.	.	_	.	.	.	.	.	.
2i7	B-:min7	.	_	bom,	.	172.884	.	.	2B- 2dd- 2ff 2aa
.	.	.	sen-	.	.	.	.	.	.
.	.	.	.	bom,	.	.	.	.	.
.	.	.	.	_	.	.	.	.	.
.	.	.	.	bom,	.	.	.	.	.
.	.	.	-sa-	.	(A	.	.	.	.
=89	=89	=89	=89	=89	=89	=89	=89	=89	=89
2-VI	G-:maj	.	-tion!	.	a)	173.871	.	voice	2G-- 2b-- 2dd--
.	.	.	_	.	.	.	.	.	.
.	.	.	_	bom,	.	.	.	.	.
.	.	.	_	.	.	.	.	.	.
.	.	.	_	_	.	.	.	.	.
.	.	.	.	bom,	.	.	.	.	.
.	.	.	_	.	.	.	.	.	.
2-VII	A-:maj	.	.	bom,	.	174.858	.	.	2A- 2cc 2ee-
.	.	.	It's	.	.	.	.	.	.
.	.	.	.	bom,	.	.	.	.	.
.	.	.	such	_	.	.	.	.	.
.	.	.	.	bom.	.	.	.	.	.
.	.	.	a	.	.	.	.	.	.
=90	=90	=90	=90	=90	=90	=90	=90	=90	=90
2-VII	A-:maj	.	.	.	.	175.845	newline	voice	2A- 2cc 2ee-
.	.	.	good	Bom,	.	.	.	.	.
.	.	.	.	_	.	.	.	.	.
.	.	.	.	bom,	.	.	.	.	.
.	.	.	vi-	.	.	.	.	.	.
2i7	B-:min7	.	-bra-	bom,	.	176.831	.	.	2B- 2dd- 2ff 2aa
.	.	.	-tion!	.	.	.	.	.	.
.	.	.	.	bom,	.	.	.	.	.
.	.	.	_	_	.	.	.	.	.
.	.	.	.	bom,	.	.	.	.	.
.	.	.	.	.	.	.	.	.	.
=91	=91	=91	=91	=91	=91	=91	=91	=91	=91
2-VI	G-:maj	.	.	.	.	177.817	.	voice	2G-- 2b-- 2dd--
.	.	.	.	bom,	.	.	.	.	.
.	.	.	.	_	.	.	.	.	.
.	.	.	.	bom,	.	.	.	.	.
2-VII	A-:maj	.	.	bom,	.	178.803	.	.	2A- 2cc 2ee-
.	.	.	It's	.	.	.	.	.	.
.	.	.	.	bom,	.	.	.	.	.
.	.	.	such	_	.	.	.	.	.
.	.	.	.	bom.	.	.	.	.	.
.	.	.	a	.	.	.	.	.	.
=92	=92	=92	=92	=92	=92	=92	=92	=92	=92
2-VII	A-:maj	.	.	.	.	179.789	.	voice	2A- 2cc 2ee-
.	.	.	sweet	Bom,	.	.	.	.	.
.	.	.	_	_	.	.	.	.	.
.	.	.	.	bom,	.	.	.	.	.
.	.	.	_	.	.	.	.	.	.
2i7	B-:min7	.	_	bom,	.	180.775	.	.	2B- 2dd- 2ff 2aa
.	.	.	sen-	.	.	.	.	.	.
.	.	.	.	bom,	.	.	.	.	.
.	.	.	.	_	.	.	.	.	.
.	.	.	.	bom,	.	.	.	.	.
.	.	.	-sa-	.	.	.	.	.	.
=93	=93	=93	=93	=93	=93	=93	=93	=93	=93
2-VI	G-:maj	.	-tion!	.	.	181.761	.	voice	2G-- 2b-- 2dd--
.	.	.	_	.	.	.	.	.	.
.	.	.	_	bom,	.	.	.	.	.
.	.	.	_	.	.	.	.	.	.
.	.	.	_	_	.	.	.	.	.
.	.	.	.	bom,	.	.	.	.	.
.	.	.	_	.	.	.	.	.	.
2-VII	A-:maj	.	.	bom,	.	182.747	.	.	2A- 2cc 2ee-
.	.	.	.	bom,	.	.	.	.	.
.	.	.	.	_	.	.	.	.	.
.	.	.	.	bom.	.	.	.	.	.
=94	=94	=94	=94	=94	=94	=94	=94	=94	=94
*>Letter>A	*>Letter>A	*>Letter>A	*>Letter>A	*>Letter>A	*>Letter>A	*>Letter>A	*>Letter>A	*>Letter>A	*>Letter>A
*>Label>Verse	*>Label>Verse	*>Label>Verse	*>Label>Verse	*>Label>Verse	*>Label>Verse	*>Label>Verse	*>Label>Verse	*>Label>Verse	*>Label>Verse
2-VII	A-:maj	Now,	.	.	.	183.734	newline	voice	2A- 2cc 2ee-
.	.	.	.	.	.	.	.	.	.
.	.	the	.	.	.	.	.	.	.
.	.	time	.	.	.	.	.	.	.
.	.	has	.	.	.	.	.	.	.
.	.	come	.	.	.	.	.	.	.
2id	B-:min/b7	_	.	.	.	184.721	.	.	2b- 2dd- 2ff
.	.	for	.	.	.	.	.	.	.
.	.	you	.	.	.	.	.	.	.
.	.	to	.	.	.	.	.	.	.
.	.	get	.	.	H	.	.	.	.
.	.	up!	.	.	.	.	.	.	.
.	.	.	.	.	.	.	.	.	.
.	.	The	.	.	.	.	.	.	.
=95	=95	=95	=95	=95	=95	=95	=95	=95	=95
2-VI	G-:maj	rest	.	.	.	185.709	.	voice	2G-- 2b-- 2dd--
.	.	had	.	.	.	.	.	.	.
.	.	you	.	.	.	.	.	.	.
.	.	fed	.	.	H	.	.	.	.
.	.	up,	.	.	.	.	.	.	.
.	.	.	.	.	.	.	.	.	.
.	.	but	.	.	.	.	.	.	.
2-VII	A-:maj	yo,	.	.	.	186.696	.	.	2A- 2cc 2ee-
.	.	I	.	.	.	.	.	.	.
.	.	won't	.	.	.	.	.	.	.
.	.	let	.	.	H	.	.	.	.
.	.	up,	.	.	.	.	.	.	.
.	.	.	.	.	.	.	.	.	.
=96	=96	=96	=96	=96	=96	=96	=96	=96	=96
2-VII	A-:maj	.	.	.	.	187.684	.	voice	2A- 2cc 2ee-
.	.	On	.	.	.	.	.	.	.
.	.	the	.	.	.	.	.	.	.
.	.	rhy-	.	.	.	.	.	.	.
.	.	-thm	.	.	.	.	.	.	.
.	.	and	.	.	.	.	.	.	.
.	.	rhyme	.	.	B	.	.	.	.
2id	B-:min/b7	_	.	.	.	188.671	.	.	2b- 2dd- 2ff
.	.	that's	.	.	.	.	.	.	.
.	.	de-	.	.	.	.	.	.	.
.	.	-signed	.	.	B	.	.	.	.
.	.	to	.	.	.	.	.	.	.
=97	=97	=97	=97	=97	=97	=97	=97	=97	=97
2-VI	G-:maj	make	.	.	.	189.659	.	voice	2G-- 2b-- 2dd--
.	.	your	.	.	.	.	.	.	.
.	.	be-	.	.	.	.	.	.	.
.	.	-hind	.	.	B	.	.	.	.
.	.	_	.	.	.	.	.	.	.
.	.	move	.	.	.	.	.	.	.
.	.	to	.	.	.	.	.	.	.
2-VII	A-:maj	what	.	.	.	190.647	.	.	2A- 2cc 2ee-
.	.	I'm	.	.	.	.	.	.	.
.	.	in-	.	.	.	.	.	.	.
.	.	-clined	.	.	B	.	.	.	.
.	.	_	.	.	.	.	.	.	.
.	.	to!	.	.	.	.	.	.	.
.	.	.	.	.	.	.	.	.	.
=98	=98	=98	=98	=98	=98	=98	=98	=98	=98
2-VII	A-:maj	.	.	.	.	191.634	newline	voice	2A- 2cc 2ee-
.	.	Pure	.	.	.	.	.	.	.
.	.	hip-	.	.	.	.	.	.	.
.	.	-hop,	.	.	.	.	.	.	.
2i7	B-:min7	.	.	.	.	192.622	.	.	2B- 2dd- 2ff 2aa
.	.	no	.	.	.	.	.	.	.
.	.	sell-	.	.	(I	.	.	.	.
.	.	-out,	.	.	i)	.	.	.	.
.	.	.	.	.	.	.	.	.	.
.	.	if	.	.	.	.	.	.	.
=99	=99	=99	=99	=99	=99	=99	=99	=99	=99
2-VI	G-:maj	you	.	.	.	193.609	.	voice	2G-- 2b-- 2dd--
.	.	ain't	.	.	.	.	.	.	.
.	.	.	.	.	.	.	.	.	.
.	.	in	.	.	J	.	.	.	.
.	.	it	.	.	.	.	.	.	.
.	.	to	.	.	.	.	.	.	.
.	.	win	.	.	J	.	.	.	.
2-VII	A-:maj	it,	.	.	.	194.597	.	.	2A- 2cc 2ee-
.	.	then	.	.	.	.	.	.	.
.	.	get	.	.	.	.	.	.	.
.	.	the	.	.	.	.	.	.	.
.	.	hell	.	.	(I	.	.	.	.
.	.	out!	.	.	i)	.	.	.	.
.	.	.	.	.	.	.	.	.	.
=100	=100	=100	=100	=100	=100	=100	=100	=100	=100
2-VII	A-:maj	I	.	.	.	195.584	.	voice	2A- 2cc 2ee-
.	.	com-	.	.	.	.	.	.	.
.	.	-mand	.	.	K	.	.	.	.
.	.	_	.	.	.	.	.	.	.
.	.	you	.	.	.	.	.	.	.
.	.	to	.	.	.	.	.	.	.
.	.	dance,	.	.	K	.	.	.	.
2i7	B-:min7	_	.	.	.	196.572	.	.	2B- 2dd- 2ff 2aa
.	.	I	.	.	.	.	.	.	.
.	.	wan-	.	.	.	.	.	.	.
.	.	-na	.	.	.	.	.	.	.
.	.	see	.	.	.	.	.	.	.
.	.	mo-	.	.	.	.	.	.	.
.	.	-ti-	.	.	.	.	.	.	.
=101	=101	=101	=101	=101	=101	=101	=101	=101	=101
2-VI	G-:maj	-va-	.	.	(A	197.559	.	voice	2G-- 2b-- 2dd--
.	.	-tion,	.	.	a)	.	.	.	.
.	.	.	.	.	.	.	.	.	.
.	.	so	.	.	.	.	.	.	.
.	.	come	.	.	.	.	.	.	.
.	.	on,	.	.	.	.	.	.	.
2-VII	A-:maj	_	.	.	.	198.546	.	.	2A- 2cc 2ee-
.	.	now,	.	.	.	.	.	.	.
.	.	feel	.	.	.	.	.	.	.
.	.	_	.	.	.	.	.	.	.
.	.	the	.	.	.	.	.	.	.
.	.	vi-	.	.	.	.	.	.	.
=102	=102	=102	=102	=102	=102	=102	=102	=102	=102
*>Letter>B	*>Letter>B	*>Letter>B	*>Letter>B	*>Letter>B	*>Letter>B	*>Letter>B	*>Letter>B	*>Letter>B	*>Letter>B
*>Label>Solo	*>Label>Solo	*>Label>Solo	*>Label>Solo	*>Label>Solo	*>Label>Solo	*>Label>Solo	*>Label>Solo	*>Label>Solo	*>Label>Solo
2-VII	A-:maj	-bra-	.	.	(A	199.534	newline	piano	2A- 2cc 2ee-
.	.	-tion!	.	.	a)	.	.	.	.
.	.	.	.	.	.	.	.	.	.
2i7	B-:min7	.	.	.	.	200.522	.	.	2B- 2dd- 2ff 2aa
=103	=103	=103	=103	=103	=103	=103	=103	=103	=103
2-VI	G-:maj	.	.	.	.	201.511	.	piano	1G-- 1b-- 1dd--
2-VII	A-:maj	.	.	.	.	202.499	.	.	2A- 2cc 2ee-
=104	=104	=104	=104	=104	=104	=104	=104	=104	=104
2-VII	A-:maj	.	.	.	.	203.487	.	piano	1A- 1cc 1ee-
2i7	B-:min7	.	.	.	.	204.476	.	.	2B- 2dd- 2ff 2aa
=105	=105	=105	=105	=105	=105	=105	=105	=105	=105
2-VI	G-:maj	.	.	.	.	205.464	.	piano	1G-- 1b-- 1dd--
2-VII	A-:maj	.	.	.	.	206.453	.	.	2A- 2cc 2ee-
=106	=106	=106	=106	=106	=106	=106	=106	=106	=106
2-VII	A-:maj	.	.	.	.	207.441	newline	piano	1A- 1cc 1ee-
2i7	B-:min7	.	.	.	.	208.425	.	.	2B- 2dd- 2ff 2aa
=107	=107	=107	=107	=107	=107	=107	=107	=107	=107
2-VI	G-:maj	.	.	.	.	209.409	.	piano	1G-- 1b-- 1dd--
2-VII	A-:maj	.	.	.	.	210.393	.	.	2A- 2cc 2ee-
=108	=108	=108	=108	=108	=108	=108	=108	=108	=108
2-VII	A-:maj	.	.	.	.	211.376	.	piano	1A- 1cc 1ee-
2i7	B-:min7	.	.	.	.	212.36	.	.	2B- 2dd- 2ff 2aa
=109	=109	=109	=109	=109	=109	=109	=109	=109	=109
2-VI	G-:maj	.	.	.	.	213.344	.	piano	2G-- 2b-- 2dd--
2-VII	A-:maj	.	.	.	.	214.328	.	.	2A- 2cc 2ee-
.	.	.	It's	.	.	.	.	.	.
.	.	.	such	.	.	.	.	.	.
.	.	.	a	.	.	.	.	.	.
=110	=110	=110	=110	=110	=110	=110	=110	=110	=110
*>Letter>B	*>Letter>B	*>Letter>B	*>Letter>B	*>Letter>B	*>Letter>B	*>Letter>B	*>Letter>B	*>Letter>B	*>Letter>B
*>Label>Chorus	*>Label>Chorus	*>Label>Chorus	*>Label>Chorus	*>Label>Chorus	*>Label>Chorus	*>Label>Chorus	*>Label>Chorus	*>Label>Chorus	*>Label>Chorus
2-VII	A-:maj	.	.	.	.	215.312	newline	voice	2A- 2cc 2ee-
.	.	.	good	.	.	.	.	.	.
.	.	.	.	.	.	.	.	.	.
.	.	.	vi-	.	.	.	.	.	.
2id	B-:min/b7	.	-bra-	.	(A	216.3	.	.	2b- 2dd- 2ff
.	.	.	-tion!	.	a)	.	.	.	.
.	.	.	_	.	.	.	.	.	.
.	.	.	.	.	.	.	.	.	.
=111	=111	=111	=111	=111	=111	=111	=111	=111	=111
2-VI	G-:maj	Come	.	.	.	217.287	.	voice	2G-- 2b-- 2dd--
.	.	on,	.	.	.	.	.	.	.
.	.	come	.	.	.	.	.	.	.
.	.	on,	.	.	.	.	.	.	.
.	.	come	.	.	.	.	.	.	.
.	.	on!	.	.	.	.	.	.	.
2-VII	A-:maj	_	.	.	.	218.275	.	.	2A- 2cc 2ee-
.	.	.	It's	.	.	.	.	.	.
.	.	.	such	.	.	.	.	.	.
.	.	.	a	.	.	.	.	.	.
=112	=112	=112	=112	=112	=112	=112	=112	=112	=112
2-VII	A-:maj	.	.	.	.	219.263	.	voice	2A- 2cc 2ee-
.	.	.	sweet	.	.	.	.	.	.
.	.	.	_	.	.	.	.	.	.
.	.	.	_	.	.	.	.	.	.
2id	B-:min/b7	.	_	.	.	220.25	.	.	2b- 2dd- 2ff
.	.	.	sen-	.	.	.	.	.	.
.	.	.	-sa-	.	(A	.	.	.	.
=113	=113	=113	=113	=113	=113	=113	=113	=113	=113
2-VI	G-:maj	.	-tion!	.	a)	221.238	.	voice	2G-- 2b-- 2dd--
.	.	.	_	.	.	.	.	.	.
.	.	.	_	.	.	.	.	.	.
.	.	.	_	.	.	.	.	.	.
.	.	.	_	.	.	.	.	.	.
.	.	.	_	.	.	.	.	.	.
2-VII	A-:maj	Feel	.	.	.	222.226	.	.	2A- 2cc 2ee-
.	.	it,	It's	.	.	.	.	.	.
.	.	feel	such	.	.	.	.	.	.
.	.	it!	a	.	.	.	.	.	.
=114	=114	=114	=114	=114	=114	=114	=114	=114	=114
2-VII	A-:maj	.	.	.	.	223.213	newline	voice	2A- 2cc 2ee-
.	.	.	good	.	.	.	.	.	.
.	.	.	.	.	.	.	.	.	.
.	.	.	vi-	.	.	.	.	.	.
2id	B-:min/b7	.	-bra-	.	.	224.197	.	.	2b- 2dd- 2ff
.	.	.	-tion!	.	.	.	.	.	.
.	.	.	_	.	.	.	.	.	.
.	.	.	.	.	.	.	.	.	.
=115	=115	=115	=115	=115	=115	=115	=115	=115	=115
2-VI	G-:maj	.	.	.	.	225.18	.	voice	2G-- 2b-- 2dd--
2-VII	A-:maj	.	.	.	.	226.164	.	.	2A- 2cc 2ee-
.	.	.	It's	.	.	.	.	.	.
.	.	.	such	.	.	.	.	.	.
.	.	.	a	.	.	.	.	.	.
=116	=116	=116	=116	=116	=116	=116	=116	=116	=116
2-VII	A-:maj	.	.	.	.	227.147	.	voice	2A- 2cc 2ee-
.	.	.	sweet	.	.	.	.	.	.
.	.	.	_	.	.	.	.	.	.
.	.	.	_	.	.	.	.	.	.
2id	B-:min/b7	.	_	.	.	228.131	.	.	2b- 2dd- 2ff
.	.	.	sen-	.	.	.	.	.	.
.	.	.	-sa-	.	.	.	.	.	.
=117	=117	=117	=117	=117	=117	=117	=117	=117	=117
2-VI	G-:maj	.	-tion!	.	.	229.114	.	voice	2G-- 2b-- 2dd--
.	.	.	_	.	.	.	.	.	.
.	.	.	_	.	.	.	.	.	.
.	.	.	_	.	.	.	.	.	.
.	.	.	_	.	.	.	.	.	.
.	.	.	_	.	.	.	.	.	.
.	.	Feel	.	.	.	.	.	.	.
2-VII	A-:maj	_	.	.	.	230.098	.	.	2A- 2cc 2ee-
.	.	the	.	.	.	.	.	.	.
.	.	vi-	It's	.	.	.	.	.	.
.	.	-bra-	such	.	.	.	.	.	.
.	.	-tion!	a	.	.	.	.	.	.
=118	=118	=118	=118	=118	=118	=118	=118	=118	=118
*>Letter>B	*>Letter>B	*>Letter>B	*>Letter>B	*>Letter>B	*>Letter>B	*>Letter>B	*>Letter>B	*>Letter>B	*>Letter>B
*>Label>Chorus	*>Label>Chorus	*>Label>Chorus	*>Label>Chorus	*>Label>Chorus	*>Label>Chorus	*>Label>Chorus	*>Label>Chorus	*>Label>Chorus	*>Label>Chorus
2-VII	A-:maj	.	.	.	.	231.081	newline	voice	2A- 2cc 2ee-
.	.	.	good	Bom,	.	.	.	.	.
.	.	.	.	_	.	.	.	.	.
.	.	.	.	bom,	.	.	.	.	.
.	.	.	vi-	.	.	.	.	.	.
2i7	B-:min7	.	-bra-	bom,	.	232.073	.	.	2B- 2dd- 2ff 2aa
.	.	.	-tion!	.	.	.	.	.	.
.	.	.	.	bom,	.	.	.	.	.
.	.	.	_	_	.	.	.	.	.
.	.	.	.	bom,	.	.	.	.	.
.	.	.	.	.	.	.	.	.	.
=119	=119	=119	=119	=119	=119	=119	=119	=119	=119
2-VI	G-:maj	.	.	.	.	233.066	.	voice	2G-- 2b-- 2dd--
.	.	.	.	bom,	.	.	.	.	.
.	.	.	.	_	.	.	.	.	.
.	.	.	.	bom,	.	.	.	.	.
2-VII	A-:maj	.	.	bom,	.	234.058	.	.	2A- 2cc 2ee-
.	.	.	It's	.	.	.	.	.	.
.	.	.	.	bom,	.	.	.	.	.
.	.	.	such	_	.	.	.	.	.
.	.	.	.	bom.	.	.	.	.	.
.	.	.	a	.	.	.	.	.	.
=120	=120	=120	=120	=120	=120	=120	=120	=120	=120
2-VII	A-:maj	.	.	.	.	235.05	.	voice	2A- 2cc 2ee-
.	.	.	sweet	Bom,	.	.	.	.	.
.	.	.	_	_	.	.	.	.	.
.	.	.	.	bom,	.	.	.	.	.
.	.	.	_	.	.	.	.	.	.
2i7	B-:min7	.	_	bom,	.	236.042	.	.	2B- 2dd- 2ff 2aa
.	.	.	sen-	.	.	.	.	.	.
.	.	.	.	bom,	.	.	.	.	.
.	.	.	.	_	.	.	.	.	.
.	.	.	.	bom,	.	.	.	.	.
.	.	.	-sa-	.	.	.	.	.	.
=121	=121	=121	=121	=121	=121	=121	=121	=121	=121
2-VI	G-:maj	.	-tion!	.	.	237.035	.	voice	2G-- 2b-- 2dd--
.	.	.	_	.	.	.	.	.	.
.	.	.	_	bom,	.	.	.	.	.
.	.	.	_	.	.	.	.	.	.
.	.	.	_	_	.	.	.	.	.
.	.	.	.	bom,	.	.	.	.	.
.	.	.	_	.	.	.	.	.	.
2-VII	A-:maj	.	.	bom,	.	238.027	.	.	2A- 2cc 2ee-
.	.	.	It's	.	.	.	.	.	.
.	.	.	.	bom,	.	.	.	.	.
.	.	.	such	_	.	.	.	.	.
.	.	.	.	bom.	.	.	.	.	.
.	.	.	a	.	.	.	.	.	.
=122	=122	=122	=122	=122	=122	=122	=122	=122	=122
2-VII	A-:maj	.	.	.	.	239.019	newline	voice	2A- 2cc 2ee-
.	.	.	good	Bom,	.	.	.	.	.
.	.	.	.	_	.	.	.	.	.
.	.	.	.	bom,	.	.	.	.	.
.	.	.	vi-	.	.	.	.	.	.
2i7	B-:min7	.	-bra-	bom,	.	240.003	.	.	2B- 2dd- 2ff 2aa
.	.	.	-tion!	.	.	.	.	.	.
.	.	.	.	bom,	.	.	.	.	.
.	.	.	_	_	.	.	.	.	.
.	.	.	.	bom,	.	.	.	.	.
.	.	.	.	.	.	.	.	.	.
=123	=123	=123	=123	=123	=123	=123	=123	=123	=123
2-VI	G-:maj	.	.	.	.	240.986	.	voice	2G-- 2b-- 2dd--
.	.	.	.	bom,	.	.	.	.	.
.	.	.	.	_	.	.	.	.	.
.	.	.	.	bom,	.	.	.	.	.
2-VII	A-:maj	.	.	bom,	.	241.97	.	.	2A- 2cc 2ee-
.	.	.	It's	.	.	.	.	.	.
.	.	.	.	bom,	.	.	.	.	.
.	.	.	such	_	.	.	.	.	.
.	.	.	.	bom.	.	.	.	.	.
.	.	.	a	.	.	.	.	.	.
=124	=124	=124	=124	=124	=124	=124	=124	=124	=124
2-VII	A-:maj	.	.	.	.	242.953	.	voice	2A- 2cc 2ee-
.	.	.	sweet	Bom,	.	.	.	.	.
.	.	.	_	_	.	.	.	.	.
.	.	.	.	bom,	.	.	.	.	.
.	.	.	_	.	.	.	.	.	.
2i7	B-:min7	.	_	bom,	.	243.937	.	.	2B- 2dd- 2ff 2aa
.	.	.	sen-	.	.	.	.	.	.
.	.	.	.	bom,	.	.	.	.	.
.	.	.	.	_	.	.	.	.	.
.	.	.	.	bom,	.	.	.	.	.
.	.	.	-sa-	.	.	.	.	.	.
=125	=125	=125	=125	=125	=125	=125	=125	=125	=125
2-VI	G-:maj	.	-tion!	.	.	244.92	.	voice	2G-- 2b-- 2dd--
.	.	.	_	.	.	.	.	.	.
.	.	.	_	bom,	.	.	.	.	.
.	.	.	_	.	.	.	.	.	.
.	.	.	_	_	.	.	.	.	.
.	.	.	.	bom,	.	.	.	.	.
.	.	.	_	.	.	.	.	.	.
2-VII	A-:maj	.	.	bom,	.	245.903	.	.	2A- 2cc 2ee-
.	.	.	.	bom,	.	.	.	.	.
.	.	.	.	_	.	.	.	.	.
.	.	.	.	bom.	.	.	.	.	.
=126	=126	=126	=126	=126	=126	=126	=126	=126	=126
*>Letter>B2	*>Letter>B2	*>Letter>B2	*>Letter>B2	*>Letter>B2	*>Letter>B2	*>Letter>B2	*>Letter>B2	*>Letter>B2	*>Letter>B2
*>Label>Solo	*>Label>Solo	*>Label>Solo	*>Label>Solo	*>Label>Solo	*>Label>Solo	*>Label>Solo	*>Label>Solo	*>Label>Solo	*>Label>Solo
2-VII	A-:maj	.	.	.	.	246.887	newline	piano	1A- 1cc 1ee-
2i7	B-:min7	.	.	.	.	247.869	.	.	2B- 2dd- 2ff 2aa
=127	=127	=127	=127	=127	=127	=127	=127	=127	=127
2-VI	G-:maj	.	.	.	.	248.852	.	piano	1G-- 1b-- 1dd--
2-VII	A-:maj	.	.	.	.	249.834	.	.	2A- 2cc 2ee-
=128	=128	=128	=128	=128	=128	=128	=128	=128	=128
2-VII	A-:maj	.	.	.	.	250.816	.	piano	1A- 1cc 1ee-
2i7	B-:min7	.	.	.	.	251.799	.	.	2B- 2dd- 2ff 2aa
=129	=129	=129	=129	=129	=129	=129	=129	=129	=129
2-VI	G-:maj	.	.	.	.	252.781	.	piano	1G-- 1b-- 1dd--
2-VII	A-:maj	.	.	.	.	253.764	.	.	2A- 2cc 2ee-
=130	=130	=130	=130	=130	=130	=130	=130	=130	=130
2-VII	A-:maj	.	.	.	.	254.746	newline	piano	1A- 1cc 1ee-
2i7	B-:min7	.	.	.	.	255.736	.	.	2B- 2dd- 2ff 2aa
=131	=131	=131	=131	=131	=131	=131	=131	=131	=131
2-VI	G-:maj	.	.	.	.	256.725	.	piano	1G-- 1b-- 1dd--
2-VII	A-:maj	.	.	.	.	257.715	.	.	2A- 2cc 2ee-
=132	=132	=132	=132	=132	=132	=132	=132	=132	=132
2-VII	A-:maj	.	.	.	.	258.704	.	piano	1A- 1cc 1ee-
2i7	B-:min7	.	.	.	.	259.694	.	.	2B- 2dd- 2ff 2aa
=133	=133	=133	=133	=133	=133	=133	=133	=133	=133
2-VI	G-:maj	.	.	.	.	260.683	.	piano	1G-- 1b-- 1dd--
2-VII	A-:maj	.	.	.	.	261.673	.	.	2A- 2cc 2ee-
1r;	N	.	.	.	.	262.663	.	r	1r;
1r;	N	.	.	.	.	268.841	.	r	1r;
1r;	N	.	.	.	.	269.558	.	r	1r;
*-	*-	*-	*-	*-	*-	*-	*-	*-	*-
!!!BillboardChartDate: 1991/11/09, 1991/11/09
!!!BillboardPeak: 1, 1
!!!BillboardWeeksOnChart: 19, 19
!!!COC: Marky Mark
!!!ENC: Nathaniel Condit-Schultz
!!!EST: Awating manual error checking and editing.
!!!OTL: Good Vibrations
!!!RDF**harte: Chris Harte's syntax, used by MIREX
!!!RDF**harmony: **recip + pitch class of root + harmonic quality
!!!RDF**leadinstrument: original McGill primary instrumentation annotation
!!!RDF**phrase: newline = linebreak in original McGill transcription
!!!RDF**timestamp: McGill audio timestamp in seconds
!!!RDT: 2017/01/12/
!!!SampleActualRank: 31, 31
!!!SampleID#: 352, 503
!!!SampleTargetRank: 31, 30
!!!MBID: None
